packages/extensions/icons/logo.svg

<?xml version="1.0" encoding="UTF-8"?>
<svg width="92px" height="64px" viewBox="0 0 92 64" version="1.1" xmlns="http://www.w3.org/2000/svg" xmlns:xlink="http://www.w3.org/1999/xlink">
    <title>形状结合</title>
    <g id="页面-1" stroke="none" stroke-width="1" fill="none" fill-rule="evenodd">
        <g id="编组-26备份" fill="#1968FA">
            <path d="M67.0748684,0 C69.2840074,-6.62306119e-15 71.0748684,1.790861 71.0748684,4 C71.0748684,4.70162568 70.8903174,5.390909 70.5397379,5.99866936 L38.2367946,61.9986694 C37.5224645,63.2370235 36.2015363,64 34.771925,64 L25.9251316,64 C23.7159926,64 21.9251316,62.209139 21.9251316,60 C21.9251316,59.2983743 22.1096826,58.609091 22.4602621,58.0013306 L54.7632054,2.00133064 C55.4775355,0.762976532 56.7984637,2.62615326e-16 58.228075,0 L67.0748684,0 Z M79.7896564,12.300927 C80.3369499,12.6375658 80.7950922,13.101095 81.1253106,13.6522862 L90.7822733,29.771413 C91.533164,31.0247783 91.5409359,32.5878408 90.802546,33.8486112 L74.3026614,62.0214873 C73.5849395,63.246968 72.2712404,64 70.8510547,64 L61.9117455,64 C59.7026065,64 57.9117455,62.209139 57.9117455,60 C57.9117455,59.3006486 58.0951027,58.6135188 58.4435294,58.0071434 L72.2856988,33.917285 C73.0314639,32.6194122 72.9901713,31.0137638 72.1786811,29.7559391 L69.5407726,25.6671323 C68.705911,24.3730815 68.6880708,22.7146745 69.4949009,21.4029633 L74.2869066,13.6123173 C75.4443186,11.7306445 77.9079836,11.143515 79.7896564,12.300927 Z M30.0882545,0 C32.2973935,4.22083259e-15 34.0882545,1.790861 34.0882545,4 C34.0882545,4.69935136 33.9048973,5.38648122 33.5564706,5.99285663 L19.7143012,30.082715 C18.9685361,31.3805878 19.0098287,32.9862362 19.8213189,34.2440609 L22.4592274,38.3328677 C23.294089,39.6269185 23.3119292,41.2853255 22.5050991,42.5970367 L17.7130934,50.3876827 C16.5556814,52.2693555 14.0920164,52.856485 12.2103436,51.699073 C11.6630501,51.3624342 11.2049078,50.898905 10.8746894,50.3477138 L1.21772671,34.228587 C0.466836001,32.9752217 0.459064103,31.4121592 1.19745396,30.1513888 L17.6973386,1.97851265 C18.4150605,0.753031958 19.7287596,-1.51547294e-15 21.1489453,0 L30.0882545,0 Z" id="形状结合"></path>
        </g>
    </g>
</svg>

<svg width="92" height="64" viewBox="0 0 92 64" xmlns="http://www.w3.org/2000/svg"><path d="M67.075 0a4 4 0 0 1 3.465 5.999l-32.303 56A4 4 0 0 1 34.772 64h-8.847a4 4 0 0 1-3.465-5.999l32.303-56A4 4 0 0 1 58.228 0h8.847zM79.79 12.3a4 4 0 0 1 1.335 1.352l9.657 16.12a4 4 0 0 1 .02 4.077l-16.5 28.172A4 4 0 0 1 70.853 64h-8.94a4 4 0 0 1-3.468-5.993l13.842-24.09a4 4 0 0 0-.107-4.161l-2.638-4.089a4 4 0 0 1-.046-4.264l4.792-7.79A4 4 0 0 1 79.79 12.3zM30.088 0a4 4 0 0 1 3.468 5.993l-13.842 24.09a4 4 0 0 0 .107 4.161l2.638 4.089a4 4 0 0 1 .046 4.264l-4.792 7.79a4 4 0 0 1-6.838-.04L1.218 34.23a4 4 0 0 1-.02-4.078l16.5-28.172A4 4 0 0 1 21.147 0h8.94z" fill="#1968FA" fill-rule="evenodd"/></svg>
